X:12
T:Smilin' Katie
R:reel
O:Scottish
N:related to an Irish reel called The Roscommon
D:Highland Classic, Carl MacKenzie, 2007
B:William Christe Collection (1820)
S:http://www.cranfordpub.com/recordings/carl.htm
Z:psc -  http://www.cranfordpub.com
L:1/8
Q:333
M:C|
K:Emin
F|E2 BA Bdef|deBd .AFDF|E2 BA Bdef|dBdF E/E/E E:|
|:f|eB B/B/B eBge|fdad bd af|eB B/B/B eBge|dBAF E/E/E Ef|
eB B/B/B eBge|fdad bd af|gbfa efdA|BdAF E2 E|]
